X:1
T:G minor Samuel Holyoke, 1791
T:Henry Alline, 1786 A call to the careless   86. 86. (C. M.)
T:Cyrene
T:Transcribed from Harmonia Americana, 1791.
%%score [ 1 2 3 4 ]
L:1/8
Q:1/4=160
M:3/2
K:Bb
V:1 treble nm="Tr." snm="Tr."
V:2 treble nm="C." snm="C."
V:3 treble-8 nm="T." snm="T."
V:4 bass nm="B." snm="B."
V:1
"^1. Why  will  ye    die,     O  wretched  man, And choose the way    to    hell?  Je-ho-vah  of-fers  you  a  crown, And" B4 | %1
 B8 ^F4 | G8 A4 | B8 A4 | A8 ^F4 | G8 A4 | (B3 c d4) d4 | d8 d4 | d8 c4 | B8 B4 | A8 G4 | ^F8 A4 | %12
"^1. you ___   with  him _____ may dwell." (B3 c d4) A4 | (B3 A G4) ^F4 | G12 |] %15
V:2
"^2. Turn, turn, un - hap -  py  souls  re - turn,  Accept   e  - ter - nal peace, Why  will  you  at  the  Savior spurn,  Who" D4 | %1
 D8 D4 | (D6 E2) F4 | F8 =E4 | ^F8 D4 | D8 F4 | (D4 G4) ^F4 | G8 F4 | F8 F4 | F8 F4 | F8 D4 | %11
 D8 D4 |"^2. of     -      fers you ______  his grace?" D8 F4 | (F6 E2) D4 | D12 |] %15
V:3
"^3. Why will   you  hug   your cruel chains, And load your souls with guilt;  Jesus has come to bear your pains,  For" D4 | %1
 G8 A4 | B8 c4 | d8 ^c4 | d8 A4 | B8 c4 | B8 A4 | G8 F4 | B8 c4 | d8 d4 | c8 B4 | A8 ^F4 | %12
"^3.  you ____ his  blood ____   was spilt." (G3 A B4) c4 | (d3 c B4) A4 | G12 |] %15
V:4
"^4. Will  you    re - ject     e  -  ter - nal    joy,  And love  di - vine  des - pise; Or why will ye yourselves destroy,  When" G,,4 | %1
 B,,8 D,4 | G,8 F,4 | B,8 A,4 | D,8 D,4 | G,8 F,4 | G,8 D,4 | G,,8 B,,4 | B,,8 F,4 | B,8 B,4 | %10
 F,8 G,4 | D,8 D,4 |"^4. Je     -     sus   for ______   you  dies?" G,8 F,4 | (B,,6 C,2) D,4 | %14
 G,,12 |] %15

